actions/128/document-new.svg

<?xml version="1.0" encoding="UTF-8" standalone="no"?>
<svg
   xmlns:dc="http://purl.org/dc/elements/1.1/"
   xmlns:cc="http://creativecommons.org/ns#"
   xmlns:rdf="http://www.w3.org/1999/02/22-rdf-syntax-ns#"
   xmlns:svg="http://www.w3.org/2000/svg"
   xmlns="http://www.w3.org/2000/svg"
   xmlns:xlink="http://www.w3.org/1999/xlink"
   id="svg4266"
   height="128"
   width="128"
   version="1.1">
  <defs
     id="defs4268">
    <linearGradient
       id="linearGradient4361">
      <stop
         offset="0"
         style="stop-color:#ffffff;stop-opacity:1"
         id="stop4363" />
      <stop
         offset="0"
         style="stop-color:#ffffff;stop-opacity:0.23529412"
         id="stop4365" />
      <stop
         offset="1"
         style="stop-color:#ffffff;stop-opacity:0.15686275"
         id="stop4367" />
      <stop
         offset="1"
         style="stop-color:#ffffff;stop-opacity:0.39215687"
         id="stop4369" />
    </linearGradient>
    <linearGradient
       id="linearGradient4351">
      <stop
         offset="0"
         style="stop-color:#ffffff;stop-opacity:1"
         id="stop4353" />
      <stop
         offset="0.00000015"
         style="stop-color:#ffffff;stop-opacity:0.23529412"
         id="stop4355" />
      <stop
         offset="1"
         style="stop-color:#ffffff;stop-opacity:0.15686275"
         id="stop4357" />
      <stop
         offset="1"
         style="stop-color:#ffffff;stop-opacity:0.39215687"
         id="stop4359" />
    </linearGradient>
    <radialGradient
       gradientTransform="matrix(0,2.4235253,-2.6392787,0,226.36903,-84.88818)"
       gradientUnits="userSpaceOnUse"
       xlink:href="#linearGradient3242-7-3-8-0-4-58-06"
       id="radialGradient3381"
       fy="48.76759"
       fx="66.127159"
       r="31.000002"
       cy="48.76759"
       cx="66.127159" />
    <linearGradient
       gradientTransform="matrix(2.4594595,0,0,3.1081081,4.9729852,-14.594559)"
       gradientUnits="userSpaceOnUse"
       xlink:href="#linearGradient3977"
       id="linearGradient3093"
       y2="43"
       x2="23.99999"
       y1="5.5641499"
       x1="23.99999" />
    <linearGradient
       id="linearGradient3977">
      <stop
         offset="0"
         style="stop-color:#ffffff;stop-opacity:1"
         id="stop3979" />
      <stop
         offset="0.03626217"
         style="stop-color:#ffffff;stop-opacity:0.23529412"
         id="stop3981" />
      <stop
         offset="0.95056331"
         style="stop-color:#ffffff;stop-opacity:0.15686275"
         id="stop3983" />
      <stop
         offset="1"
         style="stop-color:#ffffff;stop-opacity:0.39215687"
         id="stop3985" />
    </linearGradient>
    <linearGradient
       gradientTransform="matrix(2.6571409,0,0,2.5422194,0.228619,-4.91283)"
       gradientUnits="userSpaceOnUse"
       xlink:href="#linearGradient3600"
       id="linearGradient3096"
       y2="47.013336"
       x2="25.132275"
       y1="0.98520643"
       x1="25.132275" />
    <linearGradient
       id="linearGradient3600">
      <stop
         offset="0"
         style="stop-color:#f4f4f4;stop-opacity:1"
         id="stop3602" />
      <stop
         offset="1"
         style="stop-color:#dbdbdb;stop-opacity:1"
         id="stop3604" />
    </linearGradient>
    <linearGradient
       gradientTransform="matrix(2.1456328,0,0,2.3791386,158.08997,-7.746077)"
       gradientUnits="userSpaceOnUse"
       xlink:href="#linearGradient3104"
       id="linearGradient3098"
       y2="2.9062471"
       x2="-51.786404"
       y1="50.786446"
       x1="-51.786404" />
    <linearGradient
       id="linearGradient3104">
      <stop
         offset="0"
         style="stop-color:#a0a0a0;stop-opacity:1"
         id="stop3106" />
      <stop
         offset="1"
         style="stop-color:#bebebe;stop-opacity:1"
         id="stop3108-4" />
    </linearGradient>
    <linearGradient
       gradientTransform="matrix(3.1428572,0,0,1.2857143,-11.428573,61.571428)"
       gradientUnits="userSpaceOnUse"
       xlink:href="#linearGradient3702-501-757-486"
       id="linearGradient3120"
       y2="39.999443"
       x2="25.058096"
       y1="47.027729"
       x1="25.058096" />
    <linearGradient
       id="linearGradient3702-501-757-486">
      <stop
         offset="0"
         style="stop-color:#181818;stop-opacity:0"
         id="stop3100" />
      <stop
         offset="0.5"
         style="stop-color:#181818;stop-opacity:1"
         id="stop3102" />
      <stop
         offset="1"
         style="stop-color:#181818;stop-opacity:0"
         id="stop3104" />
    </linearGradient>
    <radialGradient
       gradientTransform="matrix(2.4045407,0,0,1.7999999,-32.014243,-195.8)"
       gradientUnits="userSpaceOnUse"
       xlink:href="#linearGradient3688-464-309-255"
       id="radialGradient3123"
       fy="43.5"
       fx="4.9929786"
       r="2.5"
       cy="43.5"
       cx="4.9929786" />
    <linearGradient
       id="linearGradient3688-464-309-255">
      <stop
         offset="0"
         style="stop-color:#181818;stop-opacity:1"
         id="stop3094" />
      <stop
         offset="1"
         style="stop-color:#181818;stop-opacity:0"
         id="stop3096" />
    </linearGradient>
    <linearGradient
       id="linearGradient3688-166-749-737">
      <stop
         offset="0"
         style="stop-color:#181818;stop-opacity:1"
         id="stop3088" />
      <stop
         offset="1"
         style="stop-color:#181818;stop-opacity:0"
         id="stop3090" />
    </linearGradient>
    <radialGradient
       gradientTransform="matrix(2.4045407,0,0,1.7999999,95.985757,39.200001)"
       gradientUnits="userSpaceOnUse"
       xlink:href="#linearGradient3688-166-749-737"
       id="radialGradient4264"
       fy="43.5"
       fx="4.9929786"
       r="2.5"
       cy="43.5"
       cx="4.9929786" />
    <linearGradient
       id="linearGradient3242-7-3-8-0-4-58-06">
      <stop
         id="stop3244-5-8-5-6-4-3-8"
         style="stop-color:#cdf87e;stop-opacity:1"
         offset="0" />
      <stop
         id="stop3246-9-5-1-5-3-0-7"
         style="stop-color:#a2e34f;stop-opacity:1"
         offset="0.26238" />
      <stop
         id="stop3248-7-2-0-7-5-35-9"
         style="stop-color:#68b723;stop-opacity:1"
         offset="0.66093999" />
      <stop
         id="stop3250-8-2-8-5-6-40-4"
         style="stop-color:#1d7e0d;stop-opacity:1"
         offset="1" />
    </linearGradient>
    <linearGradient
       gradientTransform="matrix(2.1134672,0,0,1.645562,50.724212,61.899946)"
       gradientUnits="userSpaceOnUse"
       xlink:href="#linearGradient4361"
       id="linearGradient3030"
       y2="37.130203"
       x2="24.138529"
       y1="9.1762295"
       x1="24.138529" />
    <linearGradient
       gradientTransform="matrix(1.6592445,0,0,2.0928522,60.832154,51.571789)"
       gradientUnits="userSpaceOnUse"
       xlink:href="#linearGradient4351"
       id="linearGradient3030-1"
       y2="26.484531"
       x2="24.138529"
       y1="19.795095"
       x1="24.138529" />
  </defs>
  <metadata
     id="metadata4271">
    <rdf:RDF>
      <cc:Work
         rdf:about="">
        <dc:format>image/svg+xml</dc:format>
        <dc:type
           rdf:resource="http://purl.org/dc/dcmitype/StillImage" />
        <dc:title></dc:title>
      </cc:Work>
    </rdf:RDF>
  </metadata>
  <rect
     width="6"
     height="8.999999"
     x="108"
     y="113"
     id="rect2801"
     style="opacity:0.4;fill:url(#radialGradient4264);fill-opacity:1;stroke:none" />
  <rect
     width="6"
     height="8.999999"
     x="-20"
     y="-122"
     transform="scale(-1,-1)"
     id="rect3696"
     style="opacity:0.4;fill:url(#radialGradient3123);fill-opacity:1;stroke:none" />
  <rect
     width="88"
     height="9"
     x="20"
     y="113"
     id="rect3700"
     style="opacity:0.4;fill:url(#linearGradient3120);fill-opacity:1;stroke:none" />
  <path
     d="m 17.499929,1.500412 c 21.311061,0 93.000031,0.007 93.000031,0.007 l 1.1e-4,116.992628 c 0,0 -62.0001,0 -93.00014,0 0,-39.000029 0,-78.000054 0,-117.000079 z"
     id="path4160"
     style="display:inline;fill:url(#linearGradient3096);fill-opacity:1;stroke:url(#linearGradient3098);stroke-width:0.99992186;stroke-linecap:butt;stroke-linejoin:round;stroke-miterlimit:4;stroke-dasharray:none;stroke-dashoffset:0;stroke-opacity:1" />
  <path
     d="m 109.5,117.5 -91,0 0,-115.000003 91,0 z"
     id="rect6741-1"
     style="fill:none;stroke:url(#linearGradient3093);stroke-width:1;stroke-linecap:round;stroke-linejoin:round;stroke-miterlimit:4;stroke-dasharray:none;stroke-dashoffset:0;stroke-opacity:1" />
  <path
     d="m 89.5,91.499992 0,-16.007287 17,0 0,16.007287 16.00729,0 0,17.000008 -16.00729,0 0,16.00729 -17,0 0,-16.00729 -16.007286,0 0,-17.000008 16.007286,0 z"
     id="path2262"
     style="color:#000000;display:inline;overflow:visible;visibility:visible;fill:url(#radialGradient3381);fill-opacity:1.0;fill-rule:nonzero;stroke:none;stroke-width:0.98542738;stroke-linecap:round;stroke-linejoin:round;stroke-miterlimit:4;stroke-dasharray:none;stroke-dashoffset:0;stroke-opacity:1;marker:none;enable-background:accumulate" />
  <path
     style="display:inline;opacity:0.5;fill:none;stroke:url(#linearGradient3030);stroke-width:1;stroke-linecap:butt;stroke-linejoin:miter;stroke-miterlimit:4;stroke-dasharray:none;stroke-opacity:1"
     id="path2272-4"
     d="m 90.500004,93.012938 0,-16.512937 14.999996,0 0,16.487061 m 0,14.012938 0,16.5 -14.999996,0 0,-16.5" />
  <path
     style="display:inline;opacity:0.5;fill:none;stroke:url(#linearGradient3030-1);stroke-width:1;stroke-linecap:butt;stroke-linejoin:miter;stroke-miterlimit:4;stroke-dasharray:none;stroke-opacity:1"
     id="path2272-2"
     d="m 106,92.556134 15.5,-0.05434 0,14.943816 -15.5,0.0544 m -16,0 -15.5,-0.0544 0,-14.943816 15.5,0.05434" />
  <path
     d="m 89.5,91.499992 0,-16.007287 17,0 0,16.007287 16.00729,0 0,17.000008 -16.00729,0 0,16.00729 -17,0 0,-16.00729 -16.007286,0 0,-17.000008 16.007286,0 z"
     id="path2262-8"
     style="color:#000000;display:inline;overflow:visible;visibility:visible;fill:none;fill-opacity:1;fill-rule:nonzero;stroke:#0f5a00;stroke-width:1;stroke-linecap:round;stroke-linejoin:round;stroke-miterlimit:4;stroke-dasharray:none;stroke-dashoffset:0;stroke-opacity:1;marker:none;enable-background:accumulate;clip-rule:nonzero;opacity:0.5;isolation:auto;mix-blend-mode:normal;color-interpolation:sRGB;color-interpolation-filters:linearRGB;solid-color:#000000;solid-opacity:1;filter-blend-mode:normal;filter-gaussianBlur-deviation:0;color-rendering:auto;image-rendering:auto;shape-rendering:auto;text-rendering:auto" />
</svg>

<svg xmlns="http://www.w3.org/2000/svg" xmlns:xlink="http://www.w3.org/1999/xlink" viewBox="0 0 128 128"><defs><linearGradient id="h"><stop offset="0" stop-color="#fff"/><stop offset="0" stop-color="#fff" stop-opacity=".235"/><stop offset="1" stop-color="#fff" stop-opacity=".157"/><stop offset="1" stop-color="#fff" stop-opacity=".392"/></linearGradient><linearGradient id="i"><stop offset="0" stop-color="#fff"/><stop offset="0" stop-color="#fff" stop-opacity=".235"/><stop offset="1" stop-color="#fff" stop-opacity=".157"/><stop offset="1" stop-color="#fff" stop-opacity=".392"/></linearGradient><radialGradient gradientTransform="matrix(0 2.42353 -2.63928 0 226.37 -84.888)" gradientUnits="userSpaceOnUse" xlink:href="#a" id="p" fy="48.768" fx="66.127" r="31" cy="48.768" cx="66.127"/><linearGradient gradientTransform="matrix(2.45946 0 0 3.1081 4.973 -14.595)" gradientUnits="userSpaceOnUse" xlink:href="#b" id="o" y2="43" x2="24" y1="5.564" x1="24"/><linearGradient id="b"><stop offset="0" stop-color="#fff"/><stop offset=".036" stop-color="#fff" stop-opacity=".235"/><stop offset=".951" stop-color="#fff" stop-opacity=".157"/><stop offset="1" stop-color="#fff" stop-opacity=".392"/></linearGradient><linearGradient gradientTransform="matrix(2.65714 0 0 2.54222 .23 -4.913)" gradientUnits="userSpaceOnUse" xlink:href="#c" id="m" y2="47.013" x2="25.132" y1=".985" x1="25.132"/><linearGradient id="c"><stop offset="0" stop-color="#f4f4f4"/><stop offset="1" stop-color="#dbdbdb"/></linearGradient><linearGradient gradientTransform="matrix(2.14563 0 0 2.37914 158.09 -7.746)" gradientUnits="userSpaceOnUse" xlink:href="#d" id="n" y2="2.906" x2="-51.786" y1="50.786" x1="-51.786"/><linearGradient id="d"><stop offset="0" stop-color="#a0a0a0"/><stop offset="1" stop-color="#bebebe"/></linearGradient><linearGradient gradientTransform="matrix(3.14286 0 0 1.2857 -11.43 61.57)" gradientUnits="userSpaceOnUse" xlink:href="#e" id="l" y2="39.999" x2="25.058" y1="47.028" x1="25.058"/><linearGradient id="e"><stop offset="0" stop-color="#181818" stop-opacity="0"/><stop offset=".5" stop-color="#181818"/><stop offset="1" stop-color="#181818" stop-opacity="0"/></linearGradient><radialGradient gradientTransform="matrix(2.40454 0 0 1.8 -32.014 -195.8)" gradientUnits="userSpaceOnUse" xlink:href="#f" id="k" fy="43.5" fx="4.993" r="2.5" cy="43.5" cx="4.993"/><linearGradient id="f"><stop offset="0" stop-color="#181818"/><stop offset="1" stop-color="#181818" stop-opacity="0"/></linearGradient><linearGradient id="g"><stop offset="0" stop-color="#181818"/><stop offset="1" stop-color="#181818" stop-opacity="0"/></linearGradient><radialGradient gradientTransform="matrix(2.40454 0 0 1.8 95.986 39.2)" gradientUnits="userSpaceOnUse" xlink:href="#g" id="j" fy="43.5" fx="4.993" r="2.5" cy="43.5" cx="4.993"/><linearGradient id="a"><stop offset="0" stop-color="#cdf87e"/><stop offset=".262" stop-color="#a2e34f"/><stop offset=".661" stop-color="#68b723"/><stop offset="1" stop-color="#1d7e0d"/></linearGradient><linearGradient gradientTransform="matrix(2.11347 0 0 1.64556 50.724 61.9)" gradientUnits="userSpaceOnUse" xlink:href="#h" id="q" y2="37.13" x2="24.139" y1="9.176" x1="24.139"/><linearGradient gradientTransform="matrix(1.65924 0 0 2.09285 60.832 51.572)" gradientUnits="userSpaceOnUse" xlink:href="#i" id="r" y2="26.485" x2="24.139" y1="19.795" x1="24.139"/></defs><path opacity=".4" fill="url(#j)" d="M108 113h6v9h-6z"/><path transform="scale(-1)" opacity=".4" fill="url(#k)" d="M-20-122h6v9h-6z"/><path opacity=".4" fill="url(#l)" d="M20 113h88v9H20z"/><path d="M17.5 1.5c21.31 0 93 .007 93 .007V118.5h-93V1.5z" fill="url(#m)" stroke="url(#n)" stroke-linejoin="round"/><path d="M109.5 117.5h-91V2.5h91z" fill="none" stroke="url(#o)" stroke-linecap="round" stroke-linejoin="round"/><path d="M89.5 91.5V75.493h17V91.5h16.007v17H106.5v16.007h-17V108.5H73.493v-17H89.5z" color="#000" overflow="visible" fill="url(#p)"/><path d="M90.5 93.013V76.5h15v16.487m0 14.013v16.5h-15V107" opacity=".5" fill="none" stroke="url(#q)"/><path d="M106 92.556l15.5-.054v14.944l-15.5.054m-16 0l-15.5-.054V92.502l15.5.054" opacity=".5" fill="none" stroke="url(#r)"/><path d="M89.5 91.5V75.493h17V91.5h16.007v17H106.5v16.007h-17V108.5H73.493v-17H89.5z" style="isolation:auto;mix-blend-mode:normal;filter-blend-mode:normal;filter-gaussianBlur-deviation:0" color="#000" overflow="visible" fill="none" stroke="#0f5a00" stroke-linecap="round" stroke-linejoin="round" opacity=".5"/></svg>
